X:45
T:Welcome Here Again. LIT.045
M:2/4
Q:1/4=140
L:1/8
B:Wm. Litten MS, 1802
Z:Village Music Project 2017 Anne Wride
K:D
D2 DB | AF AB | D2 DB | AF EF |
D2 DB | AF Ag | fd ef | d2d2 :|
|: fd ef | gf ed | cA eA | fA eA |
fd ef | gf ed | cd ef | d2 d2 :|

